svgs/solid/sitemap.svg

<svg xmlns="http://www.w3.org/2000/svg" viewBox="0 0 640 512"><!-- Font Awesome Pro 6.0.0-alpha2 by @fontawesome - https://fontawesome.com License - https://fontawesome.com/license (Commercial License) --><path d="M128 352H32C14.375 352 0 366.375 0 384V480C0 497.625 14.375 512 32 512H128C145.625 512 160 497.625 160 480V384C160 366.375 145.625 352 128 352ZM104 272H296V320H344V272H536V320H584V262.375C584 241.25 566.75 224 545.625 224H344V160H384C401.625 160 416 145.625 416 128V32C416 14.375 401.625 0 384 0H256C238.375 0 224 14.375 224 32V128C224 145.625 238.375 160 256 160H296V224H94.375C73.25 224 56 241.25 56 262.375V320H104V272ZM368 352H272C254.375 352 240 366.375 240 384V480C240 497.625 254.375 512 272 512H368C385.625 512 400 497.625 400 480V384C400 366.375 385.625 352 368 352ZM608 352H512C494.375 352 480 366.375 480 384V480C480 497.625 494.375 512 512 512H608C625.625 512 640 497.625 640 480V384C640 366.375 625.625 352 608 352Z"/></svg>

<svg xmlns="http://www.w3.org/2000/svg" viewBox="0 0 640 512"><!-- Font Awesome Pro 5.15.1 by @fontawesome - https://fontawesome.com License - https://fontawesome.com/license (Commercial License) --><path d="M128 352H32c-17.67 0-32 14.33-32 32v96c0 17.67 14.33 32 32 32h96c17.67 0 32-14.33 32-32v-96c0-17.67-14.33-32-32-32zm-24-80h192v48h48v-48h192v48h48v-57.59c0-21.17-17.23-38.41-38.41-38.41H344v-64h40c17.67 0 32-14.33 32-32V32c0-17.67-14.33-32-32-32H256c-17.67 0-32 14.33-32 32v96c0 17.67 14.33 32 32 32h40v64H94.41C73.23 224 56 241.23 56 262.41V320h48v-48zm264 80h-96c-17.67 0-32 14.33-32 32v96c0 17.67 14.33 32 32 32h96c17.67 0 32-14.33 32-32v-96c0-17.67-14.33-32-32-32zm240 0h-96c-17.67 0-32 14.33-32 32v96c0 17.67 14.33 32 32 32h96c17.67 0 32-14.33 32-32v-96c0-17.67-14.33-32-32-32z"/></svg>
